X:1
T:Nun komm, der Heiden Heiland
T:Nun komm, der Heiden Heiland
T:BWV 62/6 (in a)
T:J.S. Bach
T:Martin Luther
C:J.S. Bach
Z:Martin Luther
%%score [ 1 2 3 4 ]
L:1/8
M:4/4
K:C
V:1 treble nm="Soprano" snm="S."
V:2 treble nm="Alto" snm="A."
V:3 treble-8 nm="Tenor" snm="T."
V:4 bass nm="Bass" snm="B."
V:1
 A2 A2 G2 c2 | BA B2 !fermata!A4 | AB c2 d2 c2 | d2 e2 !fermata!c4 | c2 d2 ed c2 | %5
w: Lob sei Gott dem|Va- * ter g'tan;|Lob * sei Gott seim|ein'- gen Sohn,|Lob sei Gott * dem|
 dc B2 !fermata!A4 | A2 A2 G2 c2 | BA B2 !fermata!A4 |] %8
w: Heil'- * gen Geist|im- mer und in|E- * wig- keit|
V:2
 E2 D2 E2 E2 | E^F ^G2 !fermata!E4 | E^G A2 D2 =G2 | F2 EF/G/ !fermata!F4 | F2 F2 E2 E2 | %5
 DA ^G2 !fermata!E4 | ^DE ^F2 E2 E2 | =FC D2 !fermata!^C4 |] %8
V:3
 c2 BA BA GA | Bc d2 !fermata!c4 | cd ef BA GA | B2 cG !fermata!A4 | A2 Bc B2 A2 | %5
w: Lob sei * Gott * dem *|Va- * ter g'tan;|Lob * sei * Gott * seim *|ein'- gen * Sohn,|Lob sei * Gott dem|
 A2 ed !fermata!c4 | ^F2 B2 B2 A2 | A3 ^G !fermata!E4 |] %8
w: Heil'- gen * Geist|im- mer und in|E- wig- keit|
V:4
 A,G, F,2 E,3 ^F, | ^G,A, E,E,, !fermata!A,,4 | A,,2 A,2 =G,F, E,2 | D,2 C,2 !fermata!F,4 | %4
 F,E, D,2 ^G,,2 A,,=G,, | F,,D,, E,,2 !fermata!A,,4 | B,,^C, ^D,B,, E,=D, =C,A,, | %7
 D,E,/G,/ E,2 !fermata!A,,4 |] %8

